X:1
T:E minor Ananias Davisson, 1820
T:Unknown Author, first published with this tune in 1820 11 11. 11 11.
T:Changing Seasons
T:Transcribed from Supplement to the Kentucky Harmony, 1820.
%%score [ 1 2 3 4 ]
L:1/8
Q:1/4=100
M:3/4
K:G
V:1 treble nm="Tr." snm="Tr."
V:2 treble nm="C." snm="C."
V:3 treble-8 nm="T." snm="T."
V:4 bass nm="B." snm="B."
V:1
 B2 | e2 e2 fe | d2 d2 B2 | GA B2 c2 | B4 B2 | G2 G2 E2 | F2 A2 GA | B2 e2 d2 | e4 gf | e2 e2 Bc | %10
w: 1.~When|win- ter is *|o- ver and|spring * is be-|gun, When|na- ture is|warmed by the *|rays of the|sun, Our *|pro- spects are *|
 d2 d2 e2 | d2 B2 AG | A4 GF | E2 A2 GA | B2 c2 BA | GE G2 F2 | E6 |] %17
w: raised by the|o- pe- ning *|year, And *|fruits are ex- *|pec- ted when *|blos- * soms ap-|pear.|
V:2
 E2 | G2 G2 FE | F2 A2 GA | B2 BA F2 | E4 G2 | B2 B2 G2 | F2 A2 B2 | F2 E2 D2 | E4 G2 | E2 E2 FE | %10
w: 2.~Our|fond ex- pec- *|ta- tions thus *|bear us * a-|way, When|beau- ti- ful|pro- spects our|eyes still sur-|vey; But|sud- den, a *|
 D2 D2 E2 | G2 B2 AG | A4 GA | B2 A2 d2 | B2 c2 BA | GE G2 F2 | E6 |] %17
w: dread- ful and|un- time- ly *|frost Re- *|stores win- ter's|gloom and our *|hopes * are all|lost.|
V:3
 E2 | B2 B2 Bc | A2 A2 B2 | GE G2 F2 | E4 B2 | e2 e2 fg | ag f2 e2 | d2 e2 fg | e4 B2 | e2 e2 fg | %10
w: 3.~Just|so in a *|sea- son when|con- * science a-|wakes, Calls|loud- ly to *|sin- * ners their|crimes to for- *|sake, Tis|then, that with *|
 ag f2 e2 | d2 B2 AG | A4 GA | B2 e2 f2 | e2 c2 BA | GE G2 F2 | E6 |] %17
w: plea- * sing e-|mo- tion we *|trace The *|tears of the|mour- ner a- *|dor- * ning each|face.|
V:4
 B,A, | G,2 E,2 E,2 | D,2 F,2 D2 | B,2 B,A, F,2 | E,4 B,,2 | E,2 E,2 G,2 | F,2 D,2 E,2 | %7
w: 4.~But *|O! in the|midst of this|plea- sing * de-|light, We|look for the|fruit, but it's|
 B,,2 A,,2 B,,2 | E,4 B,2 | G,2 G,2 F,E, | D,2 D,2 E,2 | D,2 B,,2 B,,2 | %12
w: snatched from the|sight; Some|fa- tal temp- *|ta- tion con-|vic- tion de-|
"^___________________________________________________________________________________________________________\nA folk hymn (Jackson 1953b, no. 212).\nEdited by B. C. Johnston, 2017.  Measure 6, Treble: first two notes written on A, but notated fa: both changed to G," D,4 G,F, | %13
w: stroys, And *|
 E,2 E,F, G,A, | B,2 C2 B,A, | G,E, B,,2 D,2 | E,6 |] %17
w: cuts off * the *|hope which had *|pro- * mised us|joy.|

